theme/icons/printer.svg

<svg fill="none" height="24" viewBox="0 0 24 24" width="24" xmlns="http://www.w3.org/2000/svg"><path clip-rule="evenodd" d="m8 4h8v2h-8zm10 2h4v12h-4v4h-12v-4h-4v-12h4v-4h12zm2 10h-2v-2h-12v2h-2v-8h16zm-12 0h8v4h-8zm0-6h-2v2h2z" fill="#f4f4f7" fill-rule="evenodd"/></svg>

<svg fill="none" height="24" width="24" xmlns="http://www.w3.org/2000/svg">
    <path clip-rule="evenodd" d="M8 4h8v2H8zm10 2h4v12h-4v4H6v-4H2V6h4V2h12zm2 10h-2v-2H6v2H4V8h16zM8 16h8v4H8zm0-6H6v2h2z" fill="#f4f4f7" fill-rule="evenodd"/>
</svg>
